!!!!SEGMENT: pl-sa--76-a-ii-16--002_hasse-johann-adolf--benedicte-solemnia.krn
!!!cenid: 17xx:391
!!!COM: Hasse, Johann Adolf
!!!COM-rism: pe51928
!!!CDT: 1699/03/25-1783/12/16
!!!CNT: German
!!!OTL: Benedicte solemnia
!!!PDT:
!!!AGN: Sacred
!!!SMS-siglum: PL-SA
!!!SMS-shelfmark: 76/A II 16
!!!NIFC-rismID: 1001069522
!!!URL-scan: http://bc.bdsandomierz.pl/dlibra/publication/1353/edition/1321/content
!!!ONB-nifc:
**kern	**dynam	**kern	**dynam	**kern	**dynam	**kern	**dynam	**kern	**text
*part5	*part5	*part4	*part4	*part3	*part3	*part2	*part2	*part1	*part1
*group1	*	*group1	*	*group1	*	*group1	*	*	*
*staff5	*	*staff4	*	*staff3	*	*staff2	*	*staff1	*staff1
*I"Baſso.	*	*I"Alto. Viola.	*	*I"Violino Secundo	*	*I"Violino Primo	*	*I"Canto Solo	*
*I'B.	*	*I'a-vla	*	*I'vl 2	*	*I'vl 1	*	*I'S	*
*clefF4	*	*clefC3	*	*clefG2	*	*clefG2	*	*clefC1	*
*Trd0c0	*	*	*	*	*	*	*	*	*
*k[b-]	*	*k[b-]	*	*k[b-]	*	*k[b-]	*	*k[b-]	*
*M3/4	*	*M3/4	*	*M3/4	*	*M3/4	*	*M3/4	*
*>[A,B,A]	*	*>[A,B,A]	*	*>[A,B,A]	*	*>[A,B,A]	*	*>[A,B,A]	*
*>A	*	*>A	*	*>A	*	*>A	*	*>A	*
!LO:TX:b:t=Benedicte Solennia	!	!	!	!	!	!	!	!	!
!LO:TX:a:B:t=ARIA. 2da.	!	!LO:TX:a:B:t=ARIA. 2da.	!	!LO:TX:a:B:t=Aria 2da	!	!LO:TX:a:t=Aria 2da	!	!LO:TX:a:B:t=Aria 2da.	!
4r	.	4r	.	4cc\	.	4cc\	.	4r	.
=1	=1	=1	=1	=1	=1	=1	=1	=1	=1
!	!	!	!	!	!	!	!	!LO:N:vis=00	!
4r	.	4r	.	(4cc\	.	4cc\	.	0.r	.
4r	.	4r	.	4a\)	.	4a\	.	.	.
*all\right	*	*all\right	*	*	*	*	*	*	*
4c\	.	4c/	.	4e/	.	4e/	.	.	.
=2	=2	=2	=2	=2	=2	=2	=2	=2	=2
4A\	.	2c/	.	8.f/L	.	8.f/L	.	.	.
.	.	.	.	16g/Jk	.	16g/Jk	.	.	.
4F\	.	.	.	4a/	.	4a/	.	.	.
4E\	.	4g\	.	4b-/	.	4b-/	.	.	.
=3	=3	=3	=3	=3	=3	=3	=3	=3	=3
.	.	.	.	8qqb-/	.	(8qqb-/	.	.	.
4F\	.	4f\	.	4a/	.	4a/)	.	.	.
*	*	*	*below	*	*	*	*	*	*
4C/	.	4e\	p	4g/	.	4g/	.	.	.
*	*	*	*	*	*	*	*below	*	*
4r	.	4e\	.	4g/	p	4b-/	p	.	.
=4	=4	=4	=4	=4	=4	=4	=4	=4	=4
!LO:TX:a:t=1	!	!	!	!	!	!	!	!	!
.	.	.	.	.	.	(8qqb-/	.	.	.
2.r	.	4f\	.	4f/	.	4a/)	.	.	.
.	.	4c\	.	4e/	.	4g/	.	.	.
.	.	4r	.	4cc\	f	4cc/	f	.	.
=5	=5	=5	=5	=5	=5	=5	=5	=5	=5
*all\right	*	*	*	*	*	*	*	*	*
!	!	!	!LO:DY:t=For	!	!	!	!	!LO:N:vis=00	!
2A\	.	2f\	f	4cc\	.	4cc\	.	0.r	.
.	.	.	.	4f/	.	4f/	.	.	.
4r	.	4r	.	4ff\	.	4ff\	.	.	.
=6	=6	=6	=6	=6	=6	=6	=6	=6	=6
4A\	.	2f\	.	8.cc\L	.	8.cc\L	.	.	.
.	.	.	.	16dd\Jk	.	16dd\Jk	.	.	.
.	.	.	.	8qqcc/	.	8qqcc/	.	.	.
*	*	*	*	*2\right	*	*2\right	*	*	*
4G\	.	.	.	2b-\	.	2b-\	.	.	.
4C/	.	4e\	.	.	.	.	.	.	.
=7	=7	=7	=7	=7	=7	=7	=7	=7	=7
.	.	8qqe/	.	8qqb-/	.	8qqb-/	.	.	.
2F\	.	2f\	.	2a/	.	2a/	p	.	.
4r	.	4r	.	4cc\	p	4ff\	.	.	.
=8	=8	=8	=8	=8	=8	=8	=8	=8	=8
!LO:TX:a:t=2	!	!	!	!	!	!	!	!	!
!LO:N:vis=0	!	!	!	!	!	!	!	!	!
1.r	.	4F/	.	8.a/L	.	8.cc\L	.	.	.
.	.	.	.	16b-/Jk	.	16dd\Jk	.	.	.
.	.	.	.	8qqa/	.	8qqcc/	.	.	.
.	.	4c/	p	2g/	.	2b-\	.	.	.
.	.	4C/	.	.	.	.	.	.	.
=9	=9	=9	=9	=9	=9	=9	=9	=9	=9
.	.	.	.	8qqg/	.	8qqb-/	.	.	.
!	!	!	!	!	!	!	!	!LO:N:vis=00	!
.	.	2.F/	.	2f/	.	2a/	.	0.r	.
.	.	.	.	4aa\	f	4aa\	f	.	.
!	!	!	!	!	!	!LO:LB:g=original	!	!	!
=10	=10	=10	=10	=10	=10	=10	=10	=10	=10
4F\	.	4d\|	.	4bn\	.	4bn\|	.	.	.
!	!	!	!LO:DY:t=For.	!	!	!	!	!	!
4E\	.	4g\|	f	4cc\	.	4cc\|	.	.	.
4r	.	4r	.	4r	.	4aa\|	p	.	.
!	!	!	!	!LO:LB:g=original	!	!	!	!	!
=11	=11	=11	=11	=11	=11	=11	=11	=11	=11
!	!	!	!LO:DY:t=pia	!	!	!	!	!	!
2.r	.	4f\	p	4g/	p	4bn\|	.	.	.
.	.	4e\	.	4g/	.	4cc\|	.	.	.
.	.	4r	.	4r	.	4r	.	.	.
=12	=12	=12	=12	=12	=12	=12	=12	=12	=12
*	*	*	*	*Xtuplet	*	*Xtuplet	*	*	*
!	!	!	!LO:DY:t=For	!LO:TUP:b:problem:klamra łukowa:global	!	!LO:TUP:b:problem:klamra łukowa:global	!	!	!
4E\	.	4c/	f	12c/L	.	12c/L	.	.	.
.	.	.	.	12e/	.	12e/	.	.	.
.	.	.	.	12f/J	.	12f/J	.	.	.
4E\	.	4c/	.	12g/L	.	12g/L	.	.	.
.	.	.	.	12a/	.	12a/	.	.	.
.	.	.	.	12b-X/J	.	12b-X/J	.	.	.
4E\	.	4c/	.	12b-/L	.	12b-/L	.	.	.
.	.	.	.	12a/	.	12a/	.	.	.
.	.	.	.	12g#X/J	.	12g#X/J	.	.	.
!	!	!LO:LB:g=original	!	!	!	!	!	!	!
=13	=13	=13	=13	=13	=13	=13	=13	=13	=13
!	!	!	!	!	!	!	!	!LO:N:vis=00	!
4F\	.	4c\	.	12a/L	.	12a/L	.	0.r	.
.	.	.	.	12g#X/	.	12g#X/	.	.	.
.	.	.	.	12a/J	.	12a/J	.	.	.
4F\	.	4f\	.	12a/L	.	12a/L	.	.	.
.	.	.	.	12g#/	.	12g#/	.	.	.
.	.	.	.	12a/J	.	12a/J	.	.	.
4F\	.	4f\	.	12a/L	.	12a/L	.	.	.
.	.	.	.	12g#/	.	12g#/	.	.	.
.	.	.	.	12a/J	.	12a/J	.	.	.
=14	=14	=14	=14	=14	=14	=14	=14	=14	=14
4AA/	.	4f\	.	12f/L	.	12f/L	.	.	.
.	.	.	.	12a/	.	12a/	.	.	.
.	.	.	.	12b-X/J	.	12b-/J	.	.	.
4AA/	.	4f\	.	12cc\L	.	12cc\L	.	.	.
.	.	.	.	12dd\	.	12dd\	.	.	.
.	.	.	.	12ee-X\J	.	12ee-X\J	.	.	.
4AA/	.	4f\	.	12ee-\L	.	12ee-\L	.	.	.
.	.	.	.	12dd\	.	12dd\	.	.	.
.	.	.	.	12cc#X\J	.	12cc#X\J	.	.	.
!LO:LB:g=original	!	!	!	!	!	!	!	!	!
=15	=15	=15	=15	=15	=15	=15	=15	=15	=15
4BB-/	.	4f\	.	12dd\L	.	12dd\L	.	.	.
.	.	.	.	12cc#X\	.	12cc#X\	.	.	.
.	.	.	.	12dd\J	.	12dd\J	.	.	.
4BB-/	.	4f\	.	12dd\L	.	12dd\L	.	.	.
.	.	.	.	12cc#\	.	12cc#\	.	.	.
.	.	.	.	12dd\J	.	12dd\J	.	.	.
4BB-/	.	4f\	.	12dd\L	.	12dd\L	.	.	.
.	.	.	.	12cc#\	.	12cc#\	.	.	.
.	.	.	.	12dd\J	.	12dd\J	.	.	.
=16	=16	=16	=16	=16	=16	=16	=16	=16	=16
!	!	!	!	!	!	!LO:TX:a:t=P:problem:mixed beam	!	!	!
4BBn/	.	4g\	.	12g\L	.	12g/L	.	.	.
.	.	.	.	12bn\	.	12bn\	.	.	.
.	.	.	.	12cc\J	.	12cc\J	.	.	.
4BB/	.	4g\	.	12dd\L	.	12dd\L	.	.	.
.	.	.	.	12een\	.	12een\	.	.	.
.	.	.	.	12ff\J	.	12ff\J	.	.	.
4BB/	.	4g\	.	12ff\L	.	12ff\L	.	.	.
.	.	.	.	12ee\	.	12ee\	.	.	.
.	.	.	.	12dd#X\J	.	12dd#X\J	.	.	.
=17	=17	=17	=17	=17	=17	=17	=17	=17	=17
!	!	!	!	!	!	!	!	!LO:N:vis=00	!
4C/	.	4g\	.	12ee\L	.	12ee\L	.	0.r	.
.	.	.	.	12dd#X\	.	12dd#X\	.	.	.
.	.	.	.	12ee\J	.	12ee\J	.	.	.
!	!	!	!	!LO:LB:g=original	!	!	!	!	!
4C/	.	4g\	.	12ee\L	.	12ee\L	.	.	.
.	.	.	.	12dd#\	.	12dd#\	.	.	.
.	.	.	.	12ee\J	.	12ee\J	.	.	.
!	!	!	!	!	!	!LO:LB:g=original	!	!	!
!	!	!	!	!	!	!LO:TUP:problem:brak klamry	!	!	!
4C/	.	4g\	.	12ee\L	.	12ee\L	.	.	.
.	.	.	.	12dd#\	.	12dd#\	.	.	.
.	.	.	.	12ee\J	.	12ee\J	.	.	.
=18	=18	=18	=18	=18	=18	=18	=18	=18	=18
4E\	.	4c/	.	12cc\L	.	12cc\L	.	.	.
.	.	.	.	12ee\	.	12ee\	.	.	.
.	.	.	.	12ff\J	.	12ff\J	.	.	.
4E\	.	4c/	.	12gg\L	.	12gg\L	.	.	.
.	.	.	.	12aa\	.	12aa\	.	.	.
.	.	.	.	12bb-\J	.	12bb-\J	.	.	.
4E\	.	4c/	.	12bb-\L	.	12bb-\L	.	.	.
.	.	.	.	12aa\	.	12aa\	.	.	.
.	.	.	.	12gg#X\J	.	12gg#X\J	.	.	.
=19	=19	=19	=19	=19	=19	=19	=19	=19	=19
4F\	.	4c/	.	12aa\L	.	12aa\L	.	.	.
.	.	.	.	12gg#X\	.	12gg#X\	.	.	.
.	.	.	.	12aa\J	.	12aa\J	.	.	.
4F\	.	4f\	.	12aa\L	.	12aa\L	.	.	.
.	.	.	.	12gg#\	.	12gg#\	.	.	.
.	.	.	.	12aa\J	.	12aa\J	.	.	.
4F\	.	4f\	.	12aa\L	.	12aa\L	.	.	.
.	.	.	.	12gg#\	.	12gg#\	.	.	.
.	.	.	.	12aa\J	.	12aa\J	.	.	.
=20	=20	=20	=20	=20	=20	=20	=20	=20	=20
4F\	.	4f\	.	12aa\L	.	12aa\L	.	.	.
.	.	.	.	12dd\	.	12dd\	.	.	.
.	.	.	.	12cc#X\J	.	12cc#X\J	.	.	.
4F\	.	4f\	.	12dd\L	.	12dd\L	.	.	.
.	.	.	.	12aa\	.	12aa\	.	.	.
.	.	.	.	12gg#X\J	.	12gg#X\J	.	.	.
4r	.	4r	.	12aa\L	.	12aa\L	.	.	.
.	.	.	.	12ggn\	.	12ggn\	.	.	.
.	.	.	.	12ff#X\J	.	12ff#X\J	.	.	.
=21	=21	=21	=21	=21	=21	=21	=21	=21	=21
!	!	!	!	!	!	!	!	!LO:N:vis=00	!
4E\	.	4e\	.	12gg\L	.	12gg\L	.	0.r	.
.	.	.	.	12cc\	.	12cc\	.	.	.
.	.	.	.	12bn\J	.	12bn\J	.	.	.
4E\	.	4e\	.	12cc\L	.	12cc\L	.	.	.
.	.	.	.	12gg\	.	12gg\	.	.	.
!	!	!	!	!	!	!LO:TX:a:t=P:problem:# above	!	!	!
.	.	.	.	12ff#X\J	.	12ff#X\J	.	.	.
4r	.	4r	.	12gg\L	.	12gg\L	.	.	.
.	.	.	.	12ffn\	.	12ffn\	.	.	.
.	.	.	.	12ee\J	.	12ee\J	.	.	.
=22	=22	=22	=22	=22	=22	=22	=22	=22	=22
!	!	!	!	!LO:TUP:b:problem:brak klamry	!	!	!	!	!
4D\	.	4d\	.	12ff\L	.	12ff\L	.	.	.
.	.	.	.	12b-X\	.	12b-X\	.	.	.
.	.	.	.	12a\J	.	12a\J	.	.	.
!	!	!	!	!LO:TUP:b:problem:brak klamry	!	!	!	!	!
4D\	.	4d\	.	12b-\L	.	12b-\L	.	.	.
.	.	.	.	12ff\	.	12ff\	.	.	.
.	.	.	.	12ee\J	.	12ee\J	.	.	.
!	!	!	!	!LO:TUP:b:problem:brak klamry	!	!	!	!	!
4r	.	4r	.	12ff\L	.	12ff\L	.	.	.
.	.	.	.	12dd\	.	12dd\	.	.	.
.	.	.	.	12gg\J	.	12gg\J	.	.	.
=23	=23	=23	=23	=23	=23	=23	=23	=23	=23
.	.	.	.	8qqff/	.	8qqff/	.	.	.
2.C;/	.	2.G;/	.	2.ee;\	.	2ee;\	.	.	.
.	.	.	.	.	.	4r	.	.	.
!	!	!	!	!LO:LB:g=original	!	!LO:LB:g=original	!	!	!
=24	=24	=24	=24	=24	=24	=24	=24	=24	=24
!	!	!	!	!LO:TUP:b:problem:brak klamry	!	!LO:TUP:problem:brak klamry	!	!	!
4F\	.	4F/	.	12aa\L	.	12aa\L	.	.	.
.	.	.	.	12gg\	.	12gg\	.	.	.
.	.	.	.	12ff\J	.	12ff\J	.	.	.
!	!	!	!	!LO:TUP:b:problem:brak klamry	!	!LO:TUP:problem:brak klamry	!	!	!
4r	.	4r	.	12ff\L	.	12ff\L	.	.	.
.	.	.	.	12ee\	.	12ee\	.	.	.
.	.	.	.	12dd\J	.	12dd\J	.	.	.
!	!	!	!	!LO:TUP:b:problem:brak klamry	!	!LO:TUP:problem:brak klamry	!	!	!
4r	.	4r	.	12cc\L	.	12cc\L	.	.	.
.	.	.	.	12b-\	.	12b-\	.	.	.
.	.	.	.	12a\J	.	12a\J	.	.	.
=25	=25	=25	=25	=25	=25	=25	=25	=25	=25
!	!	!	!	!LO:TUP:b:problem:brak klamry	!	!LO:TUP:problem:brak klamry	!	!LO:N:vis=0	!
4BB-/	.	4d\	.	12b-/L	.	12b-/L	.	1.r	.
.	.	.	.	12a/	.	12a/	.	.	.
.	.	.	.	12g/J	.	12g/J	.	.	.
.	.	8qqf/	.	8qqa/	.	8qqa/	.	.	.
*	*	*2\right	*	*	*	*	*	*	*
4C/	.	2e\	.	2g/	.	2gT/	.	.	.
4CC/	.	.	.	.	.	.	.	.	.
!	!	!LO:LB:g=original	!	!	!	!	!	!	!
=26	=26	=26	=26	=26	=26	=26	=26	=26	=26
!	!	!	!	!LO:TUP:b:problem:brak klamry	!	!LO:TUP:problem:brak klamry	!	!	!
4FF/	.	4f\	.	12aa\L	.	12aa\L	.	.	.
.	.	.	.	12gg\	.	12gg\	.	.	.
.	.	.	.	12ff\J	.	12ff\J	.	.	.
!	!	!	!	!LO:TUP:b:problem:brak klamry	!	!LO:TUP:problem:brak klamry	!	!	!
4r	.	4r	.	12ff\L	.	12ff\L	.	.	.
.	.	.	.	12ee\	.	12ee\	.	.	.
.	.	.	.	12dd\J	.	12dd\J	.	.	.
!	!	!	!	!LO:TUP:b:problem:brak klamry	!	!LO:TUP:problem:brak klamry	!	!	!
4r	.	4r	.	12cc\L	.	12cc\L	.	.	.
.	.	.	.	12b-\	.	12b-\	.	.	.
.	.	.	.	12a\J	.	12a\J	.	.	.
!LO:LB:g=original	!	!	!	!	!	!	!	!	!
=27	=27	=27	=27	=27	=27	=27	=27	=27	=27
!	!	!	!	!	!	!LO:TUP:problem:brak klamry	!	!	!
4BB-/	.	4d/	.	(12g/L	.	12g/L	.	2.r	.
.	.	.	.	12b-/	.	12b-/	.	.	.
.	.	.	.	12dd/J)	.	12dd/J	.	.	.
.	.	.	.	8qqf/	.	8qqf/	.	.	.
4C/	.	4c/	.	2e/	.	2e/	.	.	.
4CC/	.	4G/	.	.	.	.	.	.	.
=28	=28	=28	=28	=28	=28	=28	=28	=28	=28
2FF/	.	2A/	.	2f/	.	2f/	.	4r	.
.	.	.	.	.	.	.	.	4r	.
!LO:TX:a:t=[segno]:problem:znak segno na kresce taktowej	!	!LO:TX:a:t=[segno]:problem:znak segno na kresce taktowej	!	!LO:TX:a:t=[segno]:problem:znak segno na kresce taktowej	!	!LO:TX:a:t=[segno]:problem:znak segno na kresce taktowej	!	!LO:TX:a:t=[segno]:problem:znak segno na kresce taktowej	!
=	=	=	=	=	=	=	=	=	=
*>B	*	*>B	*	*>B	*	*>B	*	*>B	*
4r	.	4r	.	4r	.	4cc\	p	4cc\	Be-
=29	=29	=29	=29	=29	=29	=29	=29	=29	=29
4r	.	4r	.	4r	.	(4cc\	.	(4cc\	-ne-
4r	.	4r	.	4r	.	4a\)	.	4a\)	-di-
4c\	.	4c/	p	4c/	p	4e/	.	4e/	-cte
=30	=30	=30	=30	=30	=30	=30	=30	=30	=30
(4A\	.	(4A/	.	2c/	.	8.f/L	.	(8.f\L	So-
.	.	.	.	.	.	16g/Jk	.	16g\Jk)	-le-
4F\)	.	4F/)	.	.	.	4a/	.	4a\	.
4E\	.	4E/	.	4g/	.	4b-/	.	4b-\	-nni-
=31	=31	=31	=31	=31	=31	=31	=31	=31	=31
4F\	.	4F/	.	4f/	.	4a/	.	4a\	.
4C/	.	4C/	.	4e/	.	4g/	.	4g\	-a
4r	.	4e\	.	4g/	.	4b-/	.	4r	.
=32	=32	=32	=32	=32	=32	=32	=32	=32	=32
!LO:TX:a:t=1	!	!	!	!	!	!	!	!	!
2.r;	.	4f\	.	4f/	.	4a/	.	4r	.
.	.	4c\	.	4e/	.	4g/	.	4r	.
.	.	4r	.	4r	.	4cc/	.	4cc\	Be-
=33	=33	=33	=33	=33	=33	=33	=33	=33	=33
2GG/	.	2A/	.	2f/	.	4cc\	.	4cc\	-ne-
.	.	.	.	.	.	4f/	.	4f/	-di-
4r	.	4r	.	4r	.	4ff\	.	4ff\	-cte
!	!	!	!	!	!	!LO:LB:g=original	!	!	!
=34	=34	=34	=34	=34	=34	=34	=34	=34	=34
4A\	.	4A/	.	2f/	.	8.cc\L	.	8.cc\L	So-
.	.	.	.	.	.	16dd\Jk	.	16dd\Jk	-le-
.	.	.	.	.	.	(8qqcc/	.	8qqcc/	.
*	*	*	*	*	*	*	*	*2\right	*
!	!	!	!	!	!	!	!	!LO:TX:a:t=P:problem:niewyraźny zapis	!
4G\	.	4G/	.	.	.	2b-\)	.	2b-\	-nni-
4C/	.	4c/	.	4e/	.	.	.	.	.
!	!	!	!	!LO:LB:g=original	!	!	!	!	!
=35	=35	=35	=35	=35	=35	=35	=35	=35	=35
.	.	.	.	8qqe/	.	8qqb-/	.	8qqb-/	.
2F\	.	2.F/	.	2f/	.	2a\	.	2a\	-a
4r	.	.	.	4cc\	.	4ff\	.	4r	.
=36	=36	=36	=36	=36	=36	=36	=36	=36	=36
!	!	!	!	!	!	!	!	!LO:N:vis=0	!
2.r	.	4F/	.	8.a/L	.	8.cc\L	.	1.r	.
!	!	!	!	!	!	!LO:N:vis=8	!	!	!
.	.	.	.	16b-/Jk	.	16dd\Jk	.	.	.
.	.	.	.	8qqa/	.	8qqcc/	.	.	.
.	.	4c/	.	2g/	.	2b-\	.	.	.
.	.	4C/	.	.	.	.	.	.	.
=37	=37	=37	=37	=37	=37	=37	=37	=37	=37
.	.	.	.	8qqg/	.	8qqb-/	.	.	.
4r	.	4F/	.	2.f/	.	2.a/	.	.	.
4FF/	.	4F/	.	.	.	.	.	.	.
4GG/	.	4G/	.	.	.	.	.	.	.
=38	=38	=38	=38	=38	=38	=38	=38	=38	=38
2AA/	.	2A/	.	4f/|	.	4f/|	.	4f/	voca-
.	.	.	.	4f/|	.	4f/|	.	4f/	.
4r	.	4r	.	4f/|	.	4f/|	.	4f/	-mus
!	!	!LO:LB:g=original	!	!	!	!	!	!LO:LB:g=original	!
=39	=39	=39	=39	=39	=39	=39	=39	=39	=39
4r	.	4r	.	4f/	.	(4f/	.	(4f/	ad
4r	.	4r	.	4ff\	.	4ff\)	.	4ff\)	tri-
!	!LO:DY:a:t=For	!	!	!	!	!	!	!	!
4F\	f	4d\	.	4a\	.	4dd\	f	4dd\	-pu-
!LO:LB:g=original	!	!	!	!	!	!	!	!	!
=40	=40	=40	=40	=40	=40	=40	=40	=40	=40
!	!	!	!LO:DY:t=For.	!	!	!	!	!	!
4F\	.	4d\	f	4g/|	.	4bn\|	.	4bn\	-di-
4E\	.	4c\	.	4g/|	.	4cc\|	.	4cc\	-a
4r	.	4r	.	4gg\	.	4gg\	.	4r	.
=41	=41	=41	=41	=41	=41	=41	=41	=41	=41
2.r	.	4f\	.	4g/|	.	4bn\|	.	2.r	.
.	.	4e\	.	4g/|	.	4cc\|	.	.	.
.	.	4r	.	4r	.	4r	.	.	.
=42	=42	=42	=42	=42	=42	=42	=42	=42	=42
*	*	*clefF4	*	*	*	*	*	*	*
*	*	*k[b-]	*	*	*	*	*	*	*
!	!	!LO:TX:b:t=Baſso.	!	!	!	!	!	!	!
!	!	!LO:TX:a:t=P:problem:bemol po kluczu	!	!	!	!	!	!	!
4c\	.	4c\	.	4cc\	.	4cc\	.	4cc\	Vo-
4G\	.	4G\	.	4g\	.	4g/	.	4g\	-ca-
4A\	.	4A\	.	4a\	.	4a/	.	4a\	-mus
=43	=43	=43	=43	=43	=43	=43	=43	=43	=43
4E\	.	4E\	.	4e/	.	4e/	.	4e/	Ad
.	.	.	.	.	.	.	.	8qqg/	.
*2\right	*	*	*	*	*	*	*	*	*
2F#Xt\	.	2F#X\	.	2f#Xt/	.	2f#Xt/	.	2f#X/	tri-
=44	=44	=44	=44	=44	=44	=44	=44	=44	=44
*	*	*clefC3	*	*	*	*	*	*	*
!	!	!LO:TX:b:t=alto.	!	!	!	!	!	!	!
.	.	.	.	8qqa/	.	.	.	.	.
4G\	p	4g\	.	8g/L	.	8g/L	.	8g/L	-pu-
.	.	.	.	8f#X/J	.	8f#X/J	.	8f#X/J	-di-
4G\	.	4G/	.	4g/	.	4g/	.	4g/	-a.
4Fn\	.	4d\	p	4bn/	.	4bnt/	.	4r	.
=45	=45	=45	=45	=45	=45	=45	=45	=45	=45
4E\	.	4e\	.	4g/	.	4cc\	.	4cc\	Be-
*	*	*clefF4	*	*	*	*	*	*	*
*	*	*k[b-]	*	*	*	*	*	*	*
4E\	.	4E\	.	4g/	.	4cc\	.	4.g\	-ne-
4E\	.	4E\	.	4g/	.	4cc\	.	.	.
.	.	.	.	.	.	.	.	8cc\	.
!	!	!	!	!	!	!LO:LB:g=original	!	!	!
=46	=46	=46	=46	=46	=46	=46	=46	=46	=46
4BBn/	.	4BBn/	.	4g/	.	4dd\	.	4dd\	di-
4BB/	.	4BB/	.	4g/	.	4dd\	.	2g/	-cte
4BB/	.	4BB/	.	4g/	.	4dd\	.	.	.
=47	=47	=47	=47	=47	=47	=47	=47	=47	=47
*	*	*	*	*	*	*	*	*Xtuplet	*
!	!	!	!	!	!	!	!	!LO:TUP:a:problem:klamra łukowa	!
4C/	.	4C/	.	4g/	.	4ee\	.	12ee\L	So-
.	.	.	.	.	.	.	.	12dd\	.
.	.	.	.	.	.	.	.	12cc\J	.
4C/	.	4C/	.	4g/	.	4ee\	.	2ccT\	.
4C/	.	4C/	.	4g/	.	4ee\	.	.	.
!	!	!	!	!LO:LB:g=original	!	!	!	!	!
=48	=48	=48	=48	=48	=48	=48	=48	=48	=48
!	!	!	!	!	!	!	!	!LO:TUP:a:problem:klamra łukowa	!
4C/	.	4C/	.	4a/	.	4ff\	.	12ff\L	.
.	.	.	.	.	.	.	.	12ee\	.
.	.	.	.	.	.	.	.	12dd\J	.
4C/	.	4C/	.	4a/	.	4ff\	.	2ccT\	.
4C/	.	4C/	.	4a/	.	4ff\	.	.	.
!	!	!	!	!	!	!	!	!LO:LB:g=original	!
=49	=49	=49	=49	=49	=49	=49	=49	=49	=49
4C/	.	4C/	.	4e/	.	4gg\	.	16gg\LL	-le-
.	.	.	.	.	.	.	.	16ff\	.
.	.	.	.	.	.	.	.	16ee\	-mni-
.	.	.	.	.	.	.	.	16dd\JJ	.
4C/	.	4C/	.	4e/	.	4gg\	.	2ccT\	-a
4C/	.	4C/	.	4e/	.	4gg\	.	.	.
!	!	!LO:LB:g=original	!	!	!	!	!	!	!
=50	=50	=50	=50	=50	=50	=50	=50	=50	=50
!	!	!	!	!	!	!	!	!LO:TUP:a:problem:klamra łukowa	!
4C/	.	4C/	.	4a/	.	4ff\	.	12ff\L	Vo-
.	.	.	.	.	.	.	.	12ee\	.
.	.	.	.	.	.	.	.	12dd\J	.
!	!	!	!	!	!	!	!	!LO:TUP:a:problem:klamra łukowa	!
4C/	.	4C/	.	4g/	.	4ee\	.	12ee\L	.
.	.	.	.	.	.	.	.	12dd\	.
.	.	.	.	.	.	.	.	12cc\J	.
!	!	!	!	!	!	!	!	!LO:TUP:a:problem:klamra łukowa	!
4C/	.	4C/	.	4f/	.	4dd\	.	12dd\L	.
.	.	.	.	.	.	.	.	12cc\	.
.	.	.	.	.	.	.	.	12bn\J	.
=51	=51	=51	=51	=51	=51	=51	=51	=51	=51
4C/	.	4C/	.	4e/	.	4cc\	.	12cc\L	.
.	.	.	.	.	.	.	.	12bn\	.
.	.	.	.	.	.	.	.	12a\J	.
4C/	.	4C/	.	4e/	.	4cc\	.	2gT/	.
4C/	.	4C/	.	4e/	.	4cc\	.	.	.
!LO:LB:g=original	!	!	!	!	!	!	!	!	!
=52	=52	=52	=52	=52	=52	=52	=52	=52	=52
!	!	!	!	!	!	!	!	!LO:TUP:a:problem:klamra łukowa	!
4C/	.	4C/	.	4a/	.	4ff\	.	12ff\L	.
.	.	.	.	.	.	.	.	12ee\	.
.	.	.	.	.	.	.	.	12dd\J	.
!	!	!	!	!	!	!	!	!LO:TUP:a:problem:klamra łukowa	!
4C/	.	4C/	.	4g/	.	4ee\	.	12ee\L	.
.	.	.	.	.	.	.	.	12dd\	.
.	.	.	.	.	.	.	.	12cc\J	.
!	!	!	!	!	!	!	!	!LO:TUP:a:problem:klamra łukowa	!
4C/	.	4C/	.	4f/	.	4dd\	.	12dd\L	.
.	.	.	.	.	.	.	.	12cc\	.
.	.	.	.	.	.	.	.	12bn\J	.
=53	=53	=53	=53	=53	=53	=53	=53	=53	=53
4C/	.	4C/	.	4e/	.	4cc\	.	12cc\L	.
.	.	.	.	.	.	.	.	12bn\	.
.	.	.	.	.	.	.	.	12a\J	.
4C/	.	4C/	.	4e/	.	4cc\	.	2g\	.
4C/	.	4C/	.	4e/	.	4g/	.	.	.
=54	=54	=54	=54	=54	=54	=54	=54	=54	=54
4C/	.	4C/	.	4f/	.	4a/	.	4a\	-ca-
4C/	.	4C/	.	4e/	.	4g/	.	4g\	-mus
4r	.	4r	.	4r	.	4r	.	4r	.
=55	=55	=55	=55	=55	=55	=55	=55	=55	=55
4E\	.	4E\	.	12gg\L	.	12gg\L	.	12gg\L	Vo-
.	.	.	.	12ff\	.	12ff\	.	12ff\	.
.	.	.	.	12ee\J	.	12ee\J	.	12ee\J	.
4r	.	4r	.	12ee\L	.	12ee\L	.	12ee\L	.
.	.	.	.	12dd\	.	12dd\	.	12dd\	.
.	.	.	.	12cc\J	.	12cc\J	.	12cc\J	.
4r	.	4r	.	12bn\L	.	12bn/L	.	12bn\L	.
.	.	.	.	12a\	.	12a/	.	12a\	.
.	.	.	.	12g\J	.	12g/J	.	12g\J	.
=56	=56	=56	=56	=56	=56	=56	=56	=56	=56
*	*	*clefC3	*	*	*	*	*	*	*
*	*	*k[b-]	*	*	*	*	*	*	*
!	!	!LO:TX:a:t=P:problem:bemol po kluczu	!LO:DY:t=For.	!	!	!	!	!	!
4F\	p	4a\	f	4dd\	.	4ff\	.	12ff\L	.
.	.	.	.	.	.	.	.	12ee\	.
.	.	.	.	.	.	.	.	12dd\J	.
.	.	.	.	8qqcc/	.	8qqee/	.	8qqee/	.
4G\	.	4g\	.	2bn\	.	2ddT\	.	2dd\	-ca-
4GG/	.	4G/	.	.	.	.	.	.	.
!	!	!	!	!	!	!	!	!LO:LB:g=original	!
=57	=57	=57	=57	=57	=57	=57	=57	=57	=57
!	!LO:DY:t=Fortiſsime.	!	!	!	!LO:DY:t=fortiſsimo.	!	!	!	!
4C/	ff	4c/	.	12cc\L	ff	12cc\L	.	2cc\	-mus.
.	.	.	.	12ee\	.	12ee\	.	.	.
.	.	.	.	12ff\J	.	12ff\J	.	.	.
4E\	.	4c/	.	12gg\L	.	12gg\L	.	.	.
.	.	.	.	12aa\	.	12aa\	.	.	.
.	.	.	.	12bb-\J	.	12bb-X\J	.	.	.
4E\	.	4c/	.	12bb-\L	.	12bb-\L	.	4r	.
.	.	.	.	12aa\	.	12aa\	.	.	.
.	.	.	.	12gg#X\J	.	12gg#X\J	.	.	.
=58	=58	=58	=58	=58	=58	=58	=58	=58	=58
!	!	!	!	!	!	!	!	!LO:N:vis=00	!
4F\	.	4c/	.	12aa\L	.	12aa\L	.	0.r	.
!	!	!	!	!LO:TX:a:t=P:problem:# above	!	!	!	!	!
.	.	.	.	12gg#X\	.	12gg#X\	.	.	.
.	.	.	.	12aa\J	.	12aa\J	.	.	.
4F\	.	4c/	.	12aa\L	.	12aa\L	.	.	.
.	.	.	.	12gg#\	.	12gg#\	.	.	.
.	.	.	.	12aa\J	.	12aa\J	.	.	.
!	!	!	!	!LO:LB:g=original	!	!LO:LB:g=original	!	!	!
4F\	.	4c/	.	12aa\L	.	12aa\L	.	.	.
.	.	.	.	12gg#\	.	12gg#\	.	.	.
.	.	.	.	12aa\J	.	12aa\J	.	.	.
=59	=59	=59	=59	=59	=59	=59	=59	=59	=59
!	!	!	!	!	!	!LO:TUP:problem:brak klamry	!	!	!
[<2.F\	.	2.d\	.	12aa\L	.	12aa\L	.	.	.
.	.	.	.	12ggn\	.	12gg\	.	.	.
.	.	.	.	12ff\J	.	12ff\J	.	.	.
!	!	!	!	!	!	!LO:TUP:problem:brak klamry	!	!	!
.	.	.	.	12ff\L	.	12ff\L	.	.	.
.	.	.	.	12ee\	.	12ee\	.	.	.
.	.	.	.	12dd\J	.	12dd\J	.	.	.
!	!	!	!	!	!	!LO:TUP:problem:brak klamry	!	!	!
.	.	.	.	12cc\L	.	12cc\L	.	.	.
.	.	.	.	12bn\	.	12bn\	.	.	.
.	.	.	.	12a\J	.	12a\J	.	.	.
=60	=60	=60	=60	=60	=60	=60	=60	=60	=60
4F\]	.	4Bn/	.	[4g/	.	4g/	.	.	.
4F\	.	4d/	.	12g/L]	.	12g/L	.	.	.
.	.	.	.	12a/	.	12a/	.	.	.
.	.	.	.	12bn/J	.	12bn/J	.	.	.
4E\	.	4G/	.	12cc\L	.	12cc\L	.	.	.
.	.	.	.	12dd\	.	12dd\	.	.	.
.	.	.	.	12ee\J	.	12ee\J	.	.	.
=61	=61	=61	=61	=61	=61	=61	=61	=61	=61
4D\	.	4f\	.	12ff\L	.	12ff\L	.	.	.
.	.	.	.	12gg\	.	12gg\	.	.	.
.	.	.	.	12aa\J	.	12aa\J	.	.	.
.	.	8qqe/	.	8qqcc/	.	8qqcc/	.	.	.
4G\	.	2d\	.	2bn\	.	2bn\	.	.	.
4GG/	.	.	.	.	.	.	.	.	.
=62	=62	=62	=62	=62	=62	=62	=62	=62	=62
!	!	!	!	!LO:SIC:s=8qb	!	!LO:SIC:s=8qb	!	!	!
.	.	.	.	8qqb-/	.	8qqb-/	.	.	.
2C/	.	2c/	.	2cc\	p	2cc\	.	4r	.
.	.	.	.	.	.	.	.	4r	.
!	!	!	!	!	!	!	!LO:DY:t=piano	!	!
4r	.	4r	.	4cc\	.	4cc\	p	4cc\	Ad-
!	!	!LO:LB:g=original	!	!	!	!	!	!	!
=63	=63	=63	=63	=63	=63	=63	=63	=63	=63
4r	.	4r	.	4r	.	(4cc\	.	(4cc\	.
4r	.	4r	.	4r	.	4a\)	.	4a\)	.
4d\	p	4d\	.	4d/	.	4f#X/	.	4f#X\	.
!LO:LB:g=original	!	!	!	!	!	!	!	!	!
=64	=64	=64	=64	=64	=64	=64	=64	=64	=64
4B-\	.	4B-/	.	2d/	.	(8g/L	.	8g\L	-tri-
.	.	.	.	.	.	8a/J)	.	8a\J	.
.	.	.	.	.	.	.	.	8qqb-/	.
4F#X\	.	4F#X/	.	.	.	2at/	.	2a\	-pu-
4D\	.	4D/	.	4f#X/	.	.	.	.	.
=65	=65	=65	=65	=65	=65	=65	=65	=65	=65
4G\	.	4G/	.	4g/	.	4b-\	.	4b-\	-di-
4D\	.	4D/	.	4f#X/	.	4a\	.	4a\	-a
4r	.	4f#X\	.	4a/	.	4cc\	.	4r	.
=66	=66	=66	=66	=66	=66	=66	=66	=66	=66
!LO:TX:a:t=1	!	!	!	!	!	!	!	!	!
.	.	.	.	.	.	8qqcc/	.	.	.
2.r	.	4g\	.	4g/	.	4b-\	.	2.r	.
.	.	4d\	.	4f#X/	.	4a\	.	.	.
.	.	4r	.	4r	.	4r	.	.	.
=67	=67	=67	=67	=67	=67	=67	=67	=67	=67
(4G\	.	(4d\	.	2.b-/	.	2.gg\	.	2.b-\	Vo-
4E\)	.	4g\)	.	.	.	.	.	.	.
4C\	.	4e\	.	.	.	.	.	.	.
=68	=68	=68	=68	=68	=68	=68	=68	=68	=68
4F\	.	4c/	.	4a/	.	4ffn\	.	4a\	-ca-
4C\	.	4c/	.	4g/	.	4ee\	.	4g\	-mus
4r	.	4e\	.	4g/	.	4b-\	.	4r	.
!	!	!	!	!LO:LB:g=original	!	!	!	!	!
=69	=69	=69	=69	=69	=69	=69	=69	=69	=69
.	.	.	.	.	.	8qqb-/	.	.	.
2.r	.	4f\	.	4f/	.	4a\	.	4r	.
.	.	4c\	.	4e/	.	4g\	.	4r	.
.	.	4r	.	4r	.	4cc\	.	4cc\	Ad
!	!	!	!	!	!	!LO:LB:g=original	!	!	!
=70	=70	=70	=70	=70	=70	=70	=70	=70	=70
2AA/	.	2A/	.	2f/	.	4cc\	.	4cc\	.
.	.	.	.	.	.	4f/	.	4f\	.
4r	.	4r	.	4r	.	4ff\	.	4ff\	.
=71	=71	=71	=71	=71	=71	=71	=71	=71	=71
4A\	.	4A/	.	2f/	.	8.cc\L	.	8.cc\L	tri-
.	.	.	.	.	.	16dd\Jk	.	16dd\Jk	.
.	.	.	.	.	.	8qqcc/	.	8qqcc/	.
4G\	.	4G/	.	.	.	2b-\	.	2b-\	-pu-
4C/	.	4c/	.	4e/	.	.	.	.	.
!	!	!	!	!	!	!	!	!LO:LB:g=original	!
=72	=72	=72	=72	=72	=72	=72	=72	=72	=72
.	.	.	.	8qqe/	.	8qqb-/	.	8qqb-/	.
2F\	.	2.F/	.	2f/	.	2a\	.	2a\	-dia
4r	.	.	.	4cc\	.	4ff\	.	4r	.
=73	=73	=73	=73	=73	=73	=73	=73	=73	=73
!	!	!	!	!	!	!	!	!LO:N:vis=0	!
2.r	.	4F/	.	8.a/L	.	8.cc\L	.	1.r	.
.	.	.	.	16b-/Jk	.	16dd\Jk	.	.	.
.	.	.	.	8qqa/	.	8qqcc/	.	.	.
.	.	4c/	.	2g/	.	2b-\	.	.	.
.	.	4C/	.	.	.	.	.	.	.
=74	=74	=74	=74	=74	=74	=74	=74	=74	=74
.	.	.	.	8qqg/	.	8qqb-/	.	.	.
4r	.	4F/	.	2.f/	.	2.a/	.	.	.
4FF/	.	4A/	.	.	.	.	.	.	.
4GG/	.	4B-/	.	.	.	.	.	.	.
=75	=75	=75	=75	=75	=75	=75	=75	=75	=75
2AA/	.	2c\	.	4f/	.	4f/	.	4f/	tu
.	.	.	.	4f/	.	4f/	.	4f/	Pa-
4r	.	4r	.	4f/	.	4f/	.	4f/	-ter
!	!	!LO:LB:g=original	!	!	!	!	!	!	!
=76	=76	=76	=76	=76	=76	=76	=76	=76	=76
4r	.	4r	.	4f/	.	(4f/	.	4f/	es
4r	.	4r	.	4cc\	.	4ee-X\)	.	4ee-X\	nos
4A\	.	4f\	.	4f/	f	4cc\	f	4cc\	fi-
=77	=77	=77	=77	=77	=77	=77	=77	=77	=77
!	!LO:DY:t=For.	!	!	!	!	!	!	!	!
4B-\	f	4f\	.	4b-/	.	4dd\|	.	4dd\	-li-
4F\	.	4f\	.	4a/	.	4cc\|	.	4cc\	-e
4r	.	4a\	.	4cc/|	.	4ff\|	.	4r	.
!LO:LB:g=original	!	!	!	!	!	!	!	!	!
=78	=78	=78	=78	=78	=78	=78	=78	=78	=78
!LO:TX:a:t=1	!	!	!	!	!	!	!	!	!
2.r	.	4b-\	.	4b-\|	.	4dd\|	.	2.r	.
.	.	4f\	.	4a\|	.	4cc\|	.	.	.
.	.	4r	.	4r	.	4r	.	.	.
=79	=79	=79	=79	=79	=79	=79	=79	=79	=79
*	*	*clefF4	*	*	*	*	*	*	*
*	*	*k[b-]	*	*	*	*	*	*	*
!	!	!LO:TX:a:t=P:problem:bemol po kluczu	!	!	!	!	!	!	!
4c\	.	4c\	.	4cc\	.	4cc\	.	4cc\	Tu
4G\	.	4G\	.	4g\	.	4g\	.	4g\	Pa-
4A\	.	4A\	.	4a\	.	4a\	.	4a\	-ter
=80	=80	=80	=80	=80	=80	=80	=80	=80	=80
4E\	.	4E\	.	4e/	.	4e/	.	4e/	es
2F\	.	2F\	.	2f#X/	.	2f#X/	.	2f/	nos
=81	=81	=81	=81	=81	=81	=81	=81	=81	=81
4C/	.	4C/	.	4g/	.	4g/	.	4g/	Fi-
4C/	.	4C/	.	4c/	.	4c/	.	4c/	-lie.
4BB-/	.	4BB-/	.	4B-/	.	4r	.	4r	.
!	!	!	!	!LO:LB:g=original	!	!	!	!	!
=82	=82	=82	=82	=82	=82	=82	=82	=82	=82
4AA/	p	4AA/	p	4A/	.	4cc\	p	16cc\LL	Tu-
.	.	.	.	.	.	.	.	16b-\	.
.	.	.	.	.	.	.	.	16a\	.
.	.	.	.	.	.	.	.	16g\JJ	.
4AA/	.	4AA/	.	4f/	.	4cc\	.	2fT/	-e
4AA/	.	4AA/	.	4f/	p	4cc\	.	.	.
=83	=83	=83	=83	=83	=83	=83	=83	=83	=83
4BB-/	.	4BB-/	.	4f/	.	4dd\	.	12dd\L	Sem-
.	.	.	.	.	.	.	.	12cc\	.
.	.	.	.	.	.	.	.	12b-\J	.
4BB-/	.	4BB-/	.	4f/	.	4dd\	.	2b-\	-per
4BB-/	.	4BB-/	.	4f/	.	4dd\	.	.	.
!	!	!	!	!	!	!	!	!LO:LB:g=original	!
=84	=84	=84	=84	=84	=84	=84	=84	=84	=84
4BB-/	.	4BB-/	.	4g/	.	4dd\	.	16dd\LL	Tu-
.	.	.	.	.	.	.	.	16cc\	.
.	.	.	.	.	.	.	.	16b-\	.
.	.	.	.	.	.	.	.	16a\JJ	.
4BB-/	.	4BB-/	.	4g/	.	4dd\	.	2g/	-e
4BB-/	.	4BB-/	.	4g/	.	4dd\	.	.	.
!	!	!	!	!	!	!LO:LB:g=original	!	!	!
=85	=85	=85	=85	=85	=85	=85	=85	=85	=85
4C/	.	4C/	.	4g/	.	4ee\	.	12ee\L	Sem-
.	.	.	.	.	.	.	.	12dd\	.
.	.	.	.	.	.	.	.	12cc\J	.
4C/	.	4C/	.	4g/	.	4ee\	.	2cc\	-per
4C/	.	4C/	.	4g/	.	4ee\	.	.	.
=86	=86	=86	=86	=86	=86	=86	=86	=86	=86
4C/	.	4C/	.	4a/	.	4ee\	.	16ee\LL	tue-
.	.	.	.	.	.	.	.	16dd\	.
.	.	.	.	.	.	.	.	16cc\	.
.	.	.	.	.	.	.	.	16b-\JJ	.
4C/	.	4C/	.	4a/	.	4ee\	.	2a\	-e
4C/	.	4C/	.	4a/	.	4ee\	.	.	.
=87	=87	=87	=87	=87	=87	=87	=87	=87	=87
4D\	.	4D\	.	4a/	.	4ff\	.	12ff\L	Sem-
.	.	.	.	.	.	.	.	12ee\	.
.	.	.	.	.	.	.	.	12dd\J	.
4D\	.	4D\	.	4b-/	.	4ff\	.	2dd\	-per
4D\	.	4D\	.	4b-/	.	4ff\	.	.	.
!	!	!LO:LB:g=original	!	!	!	!	!	!	!
=88	=88	=88	=88	=88	=88	=88	=88	=88	=88
4E\	.	4E\	.	4b-\	.	4gg\	.	16gg\LL	Cli-
.	.	.	.	.	.	.	.	16ff\	.
.	.	.	.	.	.	.	.	16ee\	.
.	.	.	.	.	.	.	.	16dd\JJ	.
4E\	.	4E\	.	4cc\	.	4gg\	.	4cc\	.
4E\	.	4E\	.	4cc\	.	4gg\	.	4b-\	.
=89	=89	=89	=89	=89	=89	=89	=89	=89	=89
4F\	.	4F\	.	4cc\	.	4aa\	.	(12a\L	-en
.	.	.	.	.	.	.	.	12b-\)	.
.	.	.	.	.	.	.	.	12cc\J	.
*	*	*	*	*	*	*	*	*	*ij
4F\	.	4F\	.	4cc\	.	4aa\	.	2cc\	Cli-
4F\	.	4F\	.	4cc\	.	4aa\	.	.	.
=90	=90	=90	=90	=90	=90	=90	=90	=90	=90
4F\	.	4F\	.	4cc\	.	4bb-\	.	12dd\L	-en
*	*	*	*	*	*	*	*	*	*Xij
.	.	.	.	.	.	.	.	12cc\	.
.	.	.	.	.	.	.	.	12b-\J	.
4F\	.	4F\	.	4cc\	.	4aa\	.	12cc\L	.
.	.	.	.	.	.	.	.	12b-\	.
.	.	.	.	.	.	.	.	12a\J	.
4F\	.	4F\	.	4b-\	.	4gg\	.	12b-\L	.
.	.	.	.	.	.	.	.	12a\	.
.	.	.	.	.	.	.	.	12g\J	.
!LO:LB:g=original	!	!	!	!	!	!	!	!	!
=91	=91	=91	=91	=91	=91	=91	=91	=91	=91
4F\	.	4F\	.	4a\	.	4ff\	.	12a\L	tu-
.	.	.	.	.	.	.	.	12g\	.
.	.	.	.	.	.	.	.	12f\J	.
4F\	.	4F\	.	4a\	.	4cc\	.	2f/	-les
4F\	.	4F\	.	4a\	.	4cc\	.	.	.
=92	=92	=92	=92	=92	=92	=92	=92	=92	=92
4F\	.	4F\	.	4b-\	.	4dd\	.	12dd\L	Cli-
.	.	.	.	.	.	.	.	12cc\	.
.	.	.	.	.	.	.	.	12b-\J	.
4F\	.	4F\	.	4b-\	.	4dd\	.	2b-\	-en-
4F\	.	4F\	.	4b-\	.	4dd\	.	.	.
!	!	!	!	!	!	!	!	!LO:LB:g=original	!
=93	=93	=93	=93	=93	=93	=93	=93	=93	=93
!	!LO:DY:t=pia	!	!	!	!	!	!	!	!
2F\	p	2F\	.	2a/	.	2cc\	.	4ff\	-tu-
.	.	.	.	.	.	.	.	4f/	-le
4r	.	4r	.	4r	.	4r	.	4r	.
=94	=94	=94	=94	=94	=94	=94	=94	=94	=94
*	*	*clefC3	*	*	*	*	*	*	*
*	*	*k[b-]	*	*	*	*	*	*	*
!	!LO:DY:t=For.	!LO:TX:a:t=P:problem:bemol po kluczu	!	!	!	!	!	!	!
4F\	f	4c/	.	12aa\L	.	12aa\L	.	12aa\L	Tu-
.	.	.	.	12gg\	.	12gg\	.	12gg\	.
.	.	.	.	12ff\J	.	12ff\J	.	12ff\J	.
4r	.	4r	.	12ff\L	f	12ff\L	f	12ff\L	.
.	.	.	.	12ee\	.	12ee\	.	12ee\	.
.	.	.	.	12dd\J	.	12dd\J	.	12dd\J	.
4r	.	4r	.	12cc\L	.	12cc\L	.	12cc\L	.
.	.	.	.	12b-\	.	12b-\	.	12b-\	.
.	.	.	.	12a\J	.	12a\J	.	12a\J	.
=95	=95	=95	=95	=95	=95	=95	=95	=95	=95
!	!LO:DY:t=pia	!	!	!	!	!	!	!	!
4BB-/	p	4d/	p	4g/	.	4b-/	.	12b-\L	-e
.	.	.	.	.	.	.	.	12a\	.
.	.	.	.	.	.	.	.	12g\J	.
.	.	.	.	8qqf/	.	8qqa/	.	.	.
4C/	.	4c/	.	2e/	p	2g/	p	2g/	Sem-
4CC/	.	4G/	.	.	.	.	.	.	.
!	!	!	!	!LO:LB:g=original	!	!	!	!	!
=96	=96	=96	=96	=96	=96	=96	=96	=96	=96
4FF/	.	4A/	.	12f/L	.	12f/L	.	2f/	-per
.	.	.	.	12a/	.	12a/	.	.	.
.	.	.	.	12b-/J	.	12b-X/J	.	.	.
4AA/	.	4f\	.	12cc\L	.	12cc\L	.	.	.
.	.	.	.	12dd\	.	12dd\	.	.	.
.	.	.	.	12ee-X\J	.	12ee-X\J	.	.	.
4AA/	.	4f\	.	12ee-\L	.	12ee-\L	.	4r	.
.	.	.	.	12dd\	.	12dd\	.	.	.
.	.	.	.	12cc#X\J	.	12cc#X\J	.	.	.
=97	=97	=97	=97	=97	=97	=97	=97	=97	=97
4BB-/	.	4f\	.	12dd\L	.	12dd\L	.	12aa\L	Cli-
.	.	.	.	12cc#X\	.	12cc#X\	.	12gg\	.
.	.	.	.	12dd\J	.	12dd\J	.	12ff\J	.
4BB-/	.	4f\	.	12dd\L	.	12dd\L	.	12ff\L	.
.	.	.	.	12cc#\	.	12cc#X\	.	12ee\	.
.	.	.	.	12dd\J	.	12dd\J	.	12dd\J	.
4BB-/	.	4f\	.	12dd\L	.	12dd\L	.	12cc\L	.
.	.	.	.	12cc#\	.	12cc#\	.	12b-\	.
.	.	.	.	12dd\J	.	12dd\J	.	12a\J	.
!	!	!	!	!	!	!LO:LB:g=original	!	!	!
=98	=98	=98	=98	=98	=98	=98	=98	=98	=98
!	!	!	!	!	!	!LO:TUP:problem:brak klamry	!	!	!
4BBn/	.	4g\	.	12g\L	.	12g\L	.	12dd\L	-en-
.	.	.	.	12bn\	.	12bn\	.	12cc\	.
.	.	.	.	12cc\J	.	12cc\J	.	12b-\J	.
.	.	.	.	.	.	.	.	8qqa/	.
!	!	!	!	!	!	!LO:TUP:problem:brak klamry	!	!	!
4BB/	.	4G/	.	12dd\L	.	12dd\L	.	2g\	-tu-
.	.	.	.	12ee\	.	12ee\	.	.	.
.	.	.	.	12ff\J	.	12ff\J	.	.	.
!	!	!	!	!	!	!LO:TUP:problem:brak klamry	!	!	!
4BB/	.	4r	.	12ff\L	.	12ff\L	.	.	.
.	.	.	.	12ee\	.	12ee\	.	.	.
.	.	.	.	12ff\J	.	12ff\J	.	.	.
=99	=99	=99	=99	=99	=99	=99	=99	=99	=99
2.C;</	.	2.c;/	.	12ee\L	.	12ee\L	.	2f/	-le
.	.	.	.	12dd\	.	12dd\	.	.	.
!	!LO:DY:t=pi.	!	!	!	!	!	!	!	!
.	p	.	.	12cc\J	.	12cc\J	.	.	.
.	.	.	.	2cc;\	.	2cc;\	.	.	.
.	.	.	.	.	.	.	.	4r	.
!	!	!LO:LB:g=original	!	!	!	!	!	!	!
=100	=100	=100	=100	=100	=100	=100	=100	=100	=100
!	!LO:DY:t=For	!	!LO:DY:t=For.	!	!	!	!	!LO:TX:a:t=P:problem:kilka pauz dopisanych ołówkiem, również napis 02 na górze	!
!	!	!	!	!	!	!	!	!LO:N:vis=00	!
4F\	f	4c/	f	12aa\L	.	12aa\L	.	0.r	.
.	.	.	.	12gg\	.	12gg\	.	.	.
.	.	.	.	12ff\J	.	12ff\J	.	.	.
4r	.	4r	.	12ff\L	.	12ff\L	f	.	.
.	.	.	.	12ee\	.	12ee\	.	.	.
.	.	.	.	12dd\J	.	12dd\J	.	.	.
4r	.	4r	.	12cc\L	f	12cc\L	.	.	.
.	.	.	.	12b-\	.	12b-\	.	.	.
!LO:DY:t=P:problem:podwójna kreska taktowa	!	!	!	!	!	!	!	!	!
.	.	.	.	12a\J	.	12a\J	.	.	.
=101	=101	=101	=101	=101	=101	=101	=101	=101	=101
!	!	!	!LO:DY:a	!	!	!	!	!	!
4BB-/	p	4d\	p	4g/	.	(4b-/	.	.	.
.	.	.	.	8qqf/	.	8qqa/	.	.	.
4C/	.	4c\	.	2e/	.	2g/)	p	.	.
4C/	.	4c\	.	.	.	.	.	.	.
=102	=102	=102	=102	=102	=102	=102	=102	=102	=102
2FF/	.	4F/	.	12f/L	.	12f/L	.	.	.
.	.	.	.	12g/	.	12g/	.	.	.
.	.	.	.	12a/J	.	12a/J	.	.	.
.	.	4r	.	12b-\L	.	12b-\L	.	.	.
.	.	.	.	12cc\	.	12cc\	.	.	.
.	.	.	.	12dd\J	.	12dd\J	.	.	.
4r	.	4r	.	12ee\L	.	12ee\L	.	.	.
.	.	.	.	12ff\	.	12ff\	.	.	.
.	.	.	.	12gg\J	.	12gg\J	.	.	.
!LO:LB:g=original	!	!	!	!	!	!	!	!	!
=103	=103	=103	=103	=103	=103	=103	=103	=103	=103
4F\	.	4c/	.	12aa\L	.	12aa\L	.	.	.
.	.	.	.	12gg\	.	12gg\	.	.	.
.	.	.	.	12ff\J	.	12ff\J	.	.	.
4r	.	4r	.	12ff\L	.	12ff\L	.	.	.
.	.	.	.	12ee\	.	12ee\	.	.	.
.	.	.	.	12dd\J	.	12dd\J	.	.	.
!	!	!	!	!LO:LB:g=original	!	!	!	!	!
4r	.	4r	.	12cc\L	.	12cc\L	.	.	.
.	.	.	.	12b-\	.	12b-\	.	.	.
.	.	.	.	12a\J	.	12a\J	.	.	.
=104	=104	=104	=104	=104	=104	=104	=104	=104	=104
!	!	!	!	!	!	!	!	!LO:N:vis=00	!
4BB-/	.	4d\	.	4g/	.	4b-/	.	0.r	.
.	.	.	.	8qqf/	.	8qqa/	.	.	.
4C/	.	4c\	.	2e/	.	2g/	.	.	.
4C/	.	4c\	.	.	.	.	.	.	.
=105	=105	=105	=105	=105	=105	=105	=105	=105	=105
!	!	!	!LO:DY:t=Fortiſsi.	!	!	!	!	!	!
4FF/	.	4F/	ff	12f/L	f	12f/L	.	.	.
.	.	.	.	12a/	.	12a/	.	.	.
.	.	.	.	12b-/J	.	12b-/J	.	.	.
4AA/	.	4f\	.	12cc\L	.	12cc\L	.	.	.
.	.	.	.	12dd\	.	12dd\	.	.	.
.	.	.	.	12ee-X\J	.	12ee-X\J	.	.	.
4AA/	.	4f\	.	12ee-\L	.	12ee-\L	.	.	.
.	.	.	.	12dd\	.	12dd\	.	.	.
.	.	.	.	12cc#X\J	.	12cc#X\J	.	.	.
=106	=106	=106	=106	=106	=106	=106	=106	=106	=106
4BB-/	.	4f\	.	12dd\L	.	12dd\L	.	.	.
.	.	.	.	12cc#X\	.	12cc#X\	.	.	.
.	.	.	.	12dd\J	.	12dd\J	.	.	.
!	!	!	!	!	!	!LO:TUP:problem:brak klamry	!	!	!
4BB-/	.	4f\	.	12dd\L	.	12dd\L	.	.	.
.	.	.	.	12cc#\	.	12cc#\	.	.	.
.	.	.	.	12dd\J	.	12dd\J	.	.	.
!	!	!	!	!	!	!LO:LB:g=original	!	!	!
4BB-/	.	4f\	.	12dd\L	.	12dd\L	.	.	.
.	.	.	.	12cc#\	.	12cc#\	.	.	.
.	.	.	.	12dd\J	.	12dd\J	.	.	.
=107	=107	=107	=107	=107	=107	=107	=107	=107	=107
4BBn/	.	4g\	.	12g\L	.	12g/L	.	.	.
.	.	.	.	12bn\	.	12bn/	.	.	.
.	.	.	.	12ccn\J	.	12cc/J	.	.	.
4BB/	.	4g\	.	12dd\L	.	12dd\L	.	.	.
.	.	.	.	12ee\	.	12ee\	.	.	.
.	.	.	.	12ff\J	.	12ff\J	.	.	.
4BB/	.	4g\	.	12ff\L	.	12ff\L	.	.	.
.	.	.	.	12ee\	.	12ee\	.	.	.
.	.	.	.	12dd#X\J	.	12dd#X\J	.	.	.
=108	=108	=108	=108	=108	=108	=108	=108	=108	=108
!	!	!	!	!	!	!	!	!LO:N:vis=00	!
4C/	.	4g\	.	12ee\L	.	12ee\L	.	0.r	.
.	.	.	.	12dd#X\	.	12dd#X\	.	.	.
.	.	.	.	12ee\J	.	12ee\J	.	.	.
4C/	.	4g\	.	12ee\L	.	12ee\L	.	.	.
.	.	.	.	12dd#\	.	12dd#\	.	.	.
.	.	.	.	12ee\J	.	12ee\J	.	.	.
4C/	.	4g\	.	12ee\L	.	12ee\L	.	.	.
.	.	.	.	12dd#\	.	12dd#\	.	.	.
.	.	.	.	12ee\J	.	12ee\J	.	.	.
=109	=109	=109	=109	=109	=109	=109	=109	=109	=109
4E\	.	4c/	.	12cc\L	.	12cc\L	.	.	.
.	.	.	.	12ee\	.	12ee\	.	.	.
.	.	.	.	12ff\J	.	12ff\J	.	.	.
4E\	.	4c/	.	12gg\L	.	12gg\L	.	.	.
.	.	.	.	12aa\	.	12aa\	.	.	.
.	.	.	.	12bb-X\J	.	12bb-\J	.	.	.
4E\	.	4c/	.	12bb-\L	.	12bb-\L	.	.	.
.	.	.	.	12aa\	.	12aa\	.	.	.
.	.	.	.	12gg#X\J	.	12gg#X\J	.	.	.
=110	=110	=110	=110	=110	=110	=110	=110	=110	=110
4F\	.	4c/	.	12aa\L	.	12aa\L	.	.	.
.	.	.	.	12gg#X\	.	12gg#X\	.	.	.
.	.	.	.	12aa\J	.	12aa\J	.	.	.
!	!	!	!	!	!	!LO:TUP:problem:brak klamry	!	!	!
4F\	.	4f\	.	12aa\L	.	12aa\L	.	.	.
.	.	.	.	12gg#\	.	12gg#\	.	.	.
.	.	.	.	12aa\J	.	12aa\J	.	.	.
!	!	!	!	!	!	!LO:TUP:problem:brak klamry	!	!	!
4F\	.	4f\	.	12aa\L	.	12aa\L	.	.	.
.	.	.	.	12gg#\	.	12gg#\	.	.	.
.	.	.	.	12aa\J	.	12aa\J	.	.	.
!	!	!	!	!LO:LB:g=original	!	!	!	!	!
=111	=111	=111	=111	=111	=111	=111	=111	=111	=111
!	!	!	!	!	!	!LO:TUP:problem:brak klamry	!	!	!
4F\	.	4f\	.	12aa\L	.	12aa\L	.	.	.
.	.	.	.	12dd\	.	12dd\	.	.	.
.	.	.	.	12cc#X\J	.	12cc#X\J	.	.	.
4F\	.	4f\	.	12dd\L	.	12dd\L	.	.	.
.	.	.	.	12aa\	.	12aa\	.	.	.
.	.	.	.	12gg#X\J	.	12gg#X\J	.	.	.
4r	.	4r	.	12aa\L	.	12aa\L	.	.	.
.	.	.	.	12ggn\	.	12ggn\	.	.	.
.	.	.	.	12ff#X\J	.	12ff#X\J	.	.	.
=112	=112	=112	=112	=112	=112	=112	=112	=112	=112
!	!	!	!	!	!	!LO:TUP:problem:brak klamry	!	!	!
4E\	.	4e\	.	12gg\L	.	12gg\L	.	2.ryy	.
.	.	.	.	12cc\	.	12cc\	.	.	.
.	.	.	.	12bn\J	.	12bn\J	.	.	.
!	!	!	!	!	!	!LO:TUP:problem:brak klamry	!	!	!
4E\	.	4e\	.	12cc\L	.	12cc\L	.	.	.
.	.	.	.	12gg\	.	12gg\	.	.	.
.	.	.	.	12ffn\J	.	12ffn\J	.	.	.
!	!	!	!	!	!	!LO:TUP:problem:brak klamry	!	!	!
4r	.	4r	.	12gg\L	.	12gg\L	.	.	.
.	.	.	.	12ffn\	.	12ffn\	.	.	.
.	.	.	.	12ee\J	.	12ee\J	.	.	.
!	!	!LO:LB:g=original	!	!	!	!LO:LB:g=original	!	!	!
=113	=113	=113	=113	=113	=113	=113	=113	=113	=113
!	!	!	!	!	!	!LO:TUP:problem:brak klamry	!	!	!
4D/	.	4d\	.	12ff\L	.	12ff\L	.	2.ryy	.
.	.	.	.	12b-\	.	12b-\	.	.	.
.	.	.	.	12a\J	.	12a\J	.	.	.
!	!	!	!	!	!	!LO:TUP:problem:brak klamry	!	!	!
4D/	.	4d\	.	12b-\L	.	12b-\L	.	.	.
.	.	.	.	12ff\	.	12ff\	.	.	.
.	.	.	.	12ee\J	.	12ee\J	.	.	.
!	!	!	!	!	!	!LO:TUP:problem:brak klamry	!	!	!
4r	.	4r	.	12ff\L	.	12ff\L	.	.	.
.	.	.	.	12dd\	.	12dd\	.	.	.
.	.	.	.	12gg\J	.	12gg\J	.	.	.
=114	=114	=114	=114	=114	=114	=114	=114	=114	=114
.	.	.	.	8qqff/	.	8qqff/	.	.	.
2.C;/	.	2.G;/	.	2.ee;\	.	2.ee;\	.	2.ryy	.
!LO:LB:g=original	!	!	!	!	!	!	!	!	!
=115	=115	=115	=115	=115	=115	=115	=115	=115	=115
!	!	!	!	!LO:TUP:problem:brak klamry	!	!LO:TUP:problem:brak klamry	!	!	!
4FF/	.	4F/	.	12aa\L	.	12aa\L	.	2.ryy	.
.	.	.	.	12gg\	.	12gg\	.	.	.
.	.	.	.	12ff\J	.	12ff\J	.	.	.
!	!	!	!	!LO:TUP:problem:brak klamry	!	!LO:TUP:problem:brak klamry	!	!	!
4r	.	4r	.	12ff\L	.	12ff\L	.	.	.
.	.	.	.	12ee\	.	12ee\	.	.	.
.	.	.	.	12dd\J	.	12dd\J	.	.	.
!	!	!	!	!LO:TUP:problem:brak klamry	!	!LO:TUP:problem:brak klamry	!	!	!
4r	.	4r	.	12cc\L	.	12cc\L	.	.	.
.	.	.	.	12b-\	.	12b-\	.	.	.
.	.	.	.	12a\J	.	12a\J	.	.	.
=116	=116	=116	=116	=116	=116	=116	=116	=116	=116
*	*	*Xtuplet	*	*	*	*	*	*	*
!	!	!LO:TUP:a:problem:klamra łukowa	!	!LO:TUP:problem:brak klamry	!	!LO:TUP:problem:brak klamry	!	!	!
4BB-/	.	12b-\L	.	12dd\L	.	12dd\L	.	2.ryy	.
.	.	12a\	.	12cc\	.	12cc\	.	.	.
.	.	12g\J	.	12b-\J	.	12b-\J	.	.	.
.	.	8qqf/	.	8qqa/	.	8qqa/	.	.	.
4C/	.	2e\	.	2g/	.	2g/	.	.	.
4CC/	.	.	.	.	.	.	.	.	.
=117	=117	=117	=117	=117	=117	=117	=117	=117	=117
!	!	!LO:TX:a:t=P:problem:pojedyncza kreska taktowa	!	!	!	!	!	!	!
2.FF/	.	2.f\	.	2.f;</	.	2.f/	.	2.ryy	.
=118||	=118||	=118||	=118||	=118||	=118||	=118||	=118||	=118||	=118||
2D/	p	2f\	p	4a/	.	4a/	p	4a\	In-
.	.	.	.	4a/	.	4a/	.	4a\	-vo-
4r	.	4r	.	4a/	.	4a/	.	4a\	-ca-
=119	=119	=119	=119	=119	=119	=119	=119	=119	=119
4D\	.	4f\	.	(4a\	.	(4a\	.	4a\	-mus
4F\	.	4a\	.	4dd\)	.	4dd\)	.	4dd\	.
4A\	.	4a\	.	4cc#X\	.	4ee\	.	4ee\	et
=120	=120	=120	=120	=120	=120	=120	=120	=120	=120
4d\	.	4a\	.	4dd\	.	4ff\	.	4ff\	can-
4A\	.	4a\	.	4cc#X\	.	4ee\	.	4ee\	-ta-
!	!	!	!LO:DY:t=For.	!	!	!	!	!	!
4r	.	4c#X\	f	4ee\	.	4gg\	.	4r	.
!	!	!	!	!LO:LB:g=original	!	!	!	!LO:LB:g=original	!
=121	=121	=121	=121	=121	=121	=121	=121	=121	=121
2.r	.	4d/	.	4dd\	.	4ff\	.	4r	.
.	.	4A/	.	4cc#X\	.	4ee\	.	4r	.
.	.	4r	.	4r	.	4a\	.	4a\	-mus
=122	=122	=122	=122	=122	=122	=122	=122	=122	=122
4F\	p	2.d\	p	2a/	.	2dd\	.	2dd\	Et
4D\	.	.	.	.	.	.	.	.	.
4G\	.	.	.	4g/	.	4b-X\	.	4b-X\	.
=123	=123	=123	=123	=123	=123	=123	=123	=123	=123
2.C#X/	.	2.c#X\	.	2.e/	.	(4b-\	.	4b-\	.
.	.	.	.	.	.	4a\)	.	4a\	.
.	.	.	.	.	.	4g\	.	4g\	can-
=124	=124	=124	=124	=124	=124	=124	=124	=124	=124
4D/	.	4d/	.	4d/	.	4f/	.	4f/	-ta-
4AA/	.	4A/	.	4c#X/	.	4e/	.	4e/	-mus
4r	.	4c#X/	.	4e/	.	4g/	.	4r	.
=125	=125	=125	=125	=125	=125	=125	=125	=125	=125
4r	.	4d/	.	4d/	.	4f/	.	2.r	.
!	!LO:DY:t=For.	!	!	!	!	!	!	!	!
4A\	f	4A/	.	4c#X/	.	4e/	.	.	.
4G\	.	4r	.	4r	.	4r	.	.	.
!	!	!LO:LB:g=original	!	!	!	!	!	!	!
=126	=126	=126	=126	=126	=126	=126	=126	=126	=126
!	!	!	!LO:DY:t=For.	!	!	!	!	!	!
2F#X\	.	2d\	f	2d/	.	2a/	.	4a\	In-
.	.	.	.	.	.	.	.	4a\	-vo-
4r	.	4r	.	4r	.	4r	.	4a\	-ca-
!	!	!	!	!	!	!LO:LB:g=original	!	!	!
=127	=127	=127	=127	=127	=127	=127	=127	=127	=127
2D\	p	2d\	p	4f#X/	.	4a\	p	8.a\L	-mus
.	.	.	.	.	.	.	.	16cc\Jk	.
.	.	.	.	4g/	.	4b-\	.	4b-\	et
4r	.	4r	.	4f#/	.	4a\	.	4a\	can-
=128	=128	=128	=128	=128	=128	=128	=128	=128	=128
2G\	.	2G/	.	4g/	.	4b-\	.	4b-\	-ta-
.	.	.	.	2b-/	.	(4ee-X\	.	4ee-X\	-a-
4r	.	4r	.	.	.	4dd\)	.	4dd\	-mus
!LO:LB:g=original	!	!	!	!	!	!	!	!	!
=129	=129	=129	=129	=129	=129	=129	=129	=129	=129
2A\	.	2B-/	.	4a/	.	4cc\	.	4cc\	Et
.	.	.	.	2cc\	.	(4ff\	.	4ff\	.
4r	.	4r	.	.	.	4ee-X\)	.	4ee-X\	Can-
!	!	!	!	!	!	!	!	!LO:LB:g=original	!
=130	=130	=130	=130	=130	=130	=130	=130	=130	=130
4B-\	.	4B-/	.	4b-\	.	4dd\	.	12dd\L	-ta-
.	.	.	.	.	.	.	.	12cc\	.
.	.	.	.	.	.	.	.	12b-\J	.
4B-\	.	4B-/	.	4b-\	.	4dd\	.	2b-\	-mus
4B-\	.	4B-/	.	4b-\	.	4dd\	.	.	.
=131	=131	=131	=131	=131	=131	=131	=131	=131	=131
4B-\	.	4B-/	.	4cc\	.	4ee-X\	.	12ee-X\L	Cor-
.	.	.	.	.	.	.	.	12dd\	.
.	.	.	.	.	.	.	.	12cc\J	.
4B-\	.	4B-/	.	4cc\	.	4ee-\	.	2cc\	-da
4B-\	.	4B-/	.	4cc\	.	4ee-\	.	.	.
=132	=132	=132	=132	=132	=132	=132	=132	=132	=132
4B-\	.	4B-/	.	4dd\	.	4ff\	.	12ff\L	Cor-
.	.	.	.	.	.	.	.	12ee-X\	.
.	.	.	.	.	.	.	.	12dd\J	.
4B-\	.	4B-/	.	4dd\	.	4ff\	.	2dd\	-da
4B-\	.	4B-/	.	4dd\	.	4ff\	.	.	.
=133	=133	=133	=133	=133	=133	=133	=133	=133	=133
2.E-X\	.	2B-/	.	4ee-X\	.	4gg\	.	12gg\L	Pa-
.	.	.	.	.	.	.	.	12ff\	.
.	.	.	.	.	.	.	.	12ee-X\J	.
.	.	.	.	4dd\	.	4ff\	.	12ff\L	.
.	.	.	.	.	.	.	.	12ee-X\	.
.	.	.	.	.	.	.	.	12dd\J	.
.	.	4g\	.	4cc\	.	4ee-X\	.	12ee-X\L	.
.	.	.	.	.	.	.	.	12dd\	.
.	.	.	.	.	.	.	.	12cc\J	.
=134	=134	=134	=134	=134	=134	=134	=134	=134	=134
2F\	.	2f\	.	4b-/	.	4dd\	.	12dd\L	.
.	.	.	.	.	.	.	.	12cc\	.
.	.	.	.	.	.	.	.	12b-\J	.
.	.	.	.	8qqb-/	.	8qqdd/	.	.	.
!	!	!	!	!	!	!	!	!LO:TX:b:t=P:problem:wykreślony tekst	!
.	.	.	.	2a/	.	2cc\	.	2cc\	.
4FF/	.	4e-X\	.	.	.	.	.	.	.
=135	=135	=135	=135	=135	=135	=135	=135	=135	=135
4BB-/	.	4d\	.	12b-\L	.	12b-\L	f	2b-\	-tri
.	.	.	.	12cc\	.	12cc\	.	.	.
.	.	.	.	12dd\J	.	12dd\J	.	.	.
4BB-/	.	4d\	.	12dd\L	.	12dd\L	.	.	.
.	.	.	.	12cc\	.	12cc\	.	.	.
.	.	.	.	12b-\J	.	12b-\J	.	.	.
!	!	!	!	!LO:LB:g=original	!	!	!	!	!
4BB-/	.	4d\	.	12a/L	.	12a/L	.	4r	.
.	.	.	.	12g/	.	12g/	.	.	.
.	.	.	.	12f#X/J	.	12f#X/J	.	.	.
=136	=136	=136	=136	=136	=136	=136	=136	=136	=136
4BB-/	.	4d\	.	12g\L	.	12g/L	.	4dd\	Cor-
.	.	.	.	12a\	.	12a/	.	.	.
.	.	.	.	12b-\J	.	12b-/J	.	.	.
4BB-/	.	4d\	.	12b-\L	.	12b-\L	.	4g\	.
.	.	.	.	12cc\	.	12cc\	.	.	.
.	.	.	.	12dd\J	.	12dd\J	.	.	.
4BB-/	.	4d\	.	12dd\L	.	12dd\L	.	4g\	-da
.	.	.	.	12ee\	.	12een\	.	.	.
.	.	.	.	12ff#X\J	.	12ff#X\J	.	.	.
!	!	!	!	!	!	!	!	!LO:LB:g=original	!
=137	=137	=137	=137	=137	=137	=137	=137	=137	=137
4BB-/	.	4d\	.	12gg\L	.	12gg\L	.	4g\	Pa-
.	.	.	.	12aa\	.	12aa\	.	.	.
.	.	.	.	12bb-\J	.	12bb-\J	.	.	.
4BB-/	.	4d\	.	12bb-\L	.	12bb-\L	.	2g\	-tri
.	.	.	.	12aa\	.	12aa\	.	.	.
.	.	.	.	12gg\J	.	12gg\J	.	.	.
!	!	!	!	!LO:TX:a:t=P:problem:♮ above	!	!	!	!	!
4BB-/	.	4d\	.	12ffn\L	.	12ffn\L	.	.	.
.	.	.	.	12ee\	.	12ee\	.	.	.
.	.	.	.	12dd\J	.	12dd\J	.	.	.
!	!	!	!	!	!	!LO:LB:g=original	!	!	!
=138	=138	=138	=138	=138	=138	=138	=138	=138	=138
!	!	!	!	!	!	!LO:TX:a:t=P:problem:niewyraźny zapis	!	!	!
.	.	.	.	8qqdd/	.	8qqdd/	.	(8qqdd/	.
2.AA/	.	2.en\	.	2.cc#X\	.	2.cc#X;\	.	2.cc#X;\)	Patri
=139	=139	=139	=139	=139	=139	=139	=139	=139	=139
2FF/	.	2a\	.	2.dd\	.	[<2.dd\	.	4dd\	Con-
.	.	.	.	.	.	.	.	8ccn\L	.
.	.	.	.	.	.	.	.	8b-\J	.
4GG/	.	4b-\	.	.	.	.	.	8a\L	.
.	.	.	.	.	.	.	.	8g\J	.
!	!	!LO:LB:g=original	!	!	!	!	!	!	!
=140	=140	=140	=140	=140	=140	=140	=140	=140	=140
2.AA/	.	2.A/	.	2dd\	.	2dd\]	.	12f/L	-ſe-
.	.	.	.	.	.	.	.	12e/	.
.	.	.	.	.	.	.	.	12d/J	.
.	.	.	.	.	.	.	.	2e/	-cra-
.	.	.	.	4cc#X\	.	4cc#X\	.	.	.
=141	=141	=141	=141	=141	=141	=141	=141	=141	=141
2D\	.	2d\	.	2dd\	.	2dd\	.	2d/	-mus
4r	.	4r	.	4r	.	4r	.	4r	.
=142	=142	=142	=142	=142	=142	=142	=142	=142	=142
!	!LO:DY:t=Fortiſs.	!	!LO:DY:t=Fortiſsi.	!LO:TUP:problem:brak klamry	!	!	!	!LO:N:vis=00	!
4AA/	ff	4f\	ff	12f/L	.	12f/L	.	0.r	.
.	.	.	.	12a/	.	12a/	.	.	.
.	.	.	.	12b-/J	.	12b-/J	.	.	.
!	!	!	!	!LO:TUP:problem:brak klamry	!	!	!	!	!
4AA/	.	4f\	.	12cc\L	.	12cc\L	.	.	.
.	.	.	.	12dd\	.	12dd\	.	.	.
.	.	.	.	12ee-X\J	.	12ee-X\J	.	.	.
!	!	!	!	!LO:TUP:problem:brak klamry	!	!	!	!	!
4AA/	.	4f\	.	12ee-\L	.	12ee-\L	.	.	.
.	.	.	.	12dd\	.	12dd\	.	.	.
.	.	.	.	12cc#X\J	.	12cc#X\J	.	.	.
!LO:LB:g=original	!	!	!	!	!	!	!	!	!
=143	=143	=143	=143	=143	=143	=143	=143	=143	=143
4BB-/	.	4f\	.	12dd\L	.	12dd\L	.	.	.
.	.	.	.	12cc#X\	.	12cc#X\	.	.	.
.	.	.	.	12dd\J	.	12dd\J	.	.	.
4BB-/	.	4f\	.	12dd\L	.	12dd\L	.	.	.
.	.	.	.	12cc#X\	.	12cc#\	.	.	.
.	.	.	.	12dd\J	.	12dd\J	.	.	.
4BB-/	.	4f\	.	12dd\L	.	12dd\L	.	.	.
.	.	.	.	12cc#X\	.	12cc#\	.	.	.
.	.	.	.	12dd\J	.	12dd\J	.	.	.
=144	=144	=144	=144	=144	=144	=144	=144	=144	=144
!	!	!	!	!	!	!LO:TUP:problem:brak klamry	!	!	!
4BBn/	.	4g\	.	12g\L	.	12g\L	.	.	.
.	.	.	.	12bn\	.	12bn\	.	.	.
.	.	.	.	12cc\J	.	12cc\J	.	.	.
!	!	!	!	!	!	!LO:TUP:problem:brak klamry	!	!	!
4BB/	.	4g\	.	12dd\L	.	12dd\L	.	.	.
.	.	.	.	12een\	.	12een\	.	.	.
.	.	.	.	12ff\J	.	12ff\J	.	.	.
!	!	!	!	!	!	!LO:TUP:problem:brak klamry	!	!	!
4BB/	.	4g\	.	12ff\L	.	12ff\L	.	.	.
.	.	.	.	12ee\	.	12ee\	.	.	.
.	.	.	.	12dd\J	.	12dd\J	.	.	.
=145	=145	=145	=145	=145	=145	=145	=145	=145	=145
.	.	.	.	8qqff/	.	8qqff/	.	.	.
2.C/	.	2.g\	.	2.ee\	.	2.ee\	.	.	.
!	!	!	!	!LO:LB:g=original	!	!	!	!	!
=146	=146	=146	=146	=146	=146	=146	=146	=146	=146
!	!	!	!	!	!	!LO:TUP:problem:brak klamry	!	!LO:N:vis=0	!
4F\	.	4f\	.	12aa\L	.	12aa\L	.	1.r	.
.	.	.	.	12gg\	.	12gg\	.	.	.
.	.	.	.	12ff\J	.	12ff\J	.	.	.
!	!	!	!	!	!	!LO:TUP:problem:brak klamry	!	!	!
4r	.	4r	.	12ff\L	.	12ff\L	.	.	.
.	.	.	.	12ee\	.	12ee\	.	.	.
.	.	.	.	12dd\J	.	12dd\J	.	.	.
!	!	!	!	!	!	!LO:LB:g=original	!	!	!
!	!	!	!	!	!	!LO:TUP:problem:brak klamry	!	!	!
4r	.	4r	.	12cc\L	.	12cc\L	.	.	.
.	.	.	.	12b-\	.	12b-\	.	.	.
.	.	.	.	12a\J	.	12a\J	.	.	.
=147	=147	=147	=147	=147	=147	=147	=147	=147	=147
!	!	!LO:TUP:a:problem:klamra łukowa	!	!	!	!LO:TUP:problem:brak klamry	!	!	!
4BB-/	.	12b-\L	.	12dd\L	.	12dd\L	.	.	.
.	.	12a\	.	12cc\	.	12cc\	.	.	.
.	.	12g\J	.	12b-\J	.	12b-\J	.	.	.
.	.	(8qqf/	.	8qqa/	.	8qqa/	.	.	.
4C/	.	2e\)	.	2g/	.	2g/	.	.	.
4CC/	.	.	.	.	.	.	.	.	.
=148	=148	=148	=148	=148	=148	=148	=148	=148	=148
2.FF/	.	2f\	.	2f/	.	2f/	.	2.r	.
!LO:TX:b:Bi:t=Del Signo	!	!LO:TX:b:Bi:t=Del Signo.	!	!LO:TX:b:B:t=Del Segno	!	!LO:TX:b:Bi:t=Del Segno	!	!LO:TX:b:Bi:t=Dal Segno	!
.	.	4ryy	.	4ryy	.	4ryy	.	.	.
!LO:TX:a:t=[segno]:problem:znak segno na kresce taktowej	!	!LO:TX:a:t=[segno]:problem:znak segno na kresce taktowej	!	!LO:TX:a:t=[segno]:problem:znak segno na kresce taktowej	!	!LO:TX:a:t=[segno]:problem:znak segno na kresce taktowej	!	!LO:TX:a:t=[segno]:problem:znak segno na kresce taktowej	!
==	==	==	==	==	==	==	==	==	==
*-	*-	*-	*-	*-	*-	*-	*-	*-	*-
!!!system-decoration: s1[g1]
!!!RDF**kern: < = below
!!!RDF**dynam: p = "pia."
!!!RDF**dynam: f = "for."
!!!ENC: Marta Lawrence
!!!END: 2020-12-02
!!!ENC: Andrzej Gręziak
!!!END: 2020-05-11
!!!RDF**kern: | = vertical stroke
